pix_core/e/underline.svg

<!DOCTYPE svg PUBLIC "-//W3C//DTD SVG 1.1//EN" "http://www.w3.org/Graphics/SVG/1.1/DTD/svg11.dtd" [
	<!ENTITY ns_flows "http://ns.adobe.com/Flows/1.0/">
]><svg xmlns="http://www.w3.org/2000/svg" width="16" height="16" viewBox="0 -1 16 16" preserveAspectRatio="xMinYMid meet" overflow="visible" enable-background="new 0 -1 16 16"><path d="M16 15h-16v-1h16v1zm-14-15v.3c.7.1 1.1.2 1.3.4.2.2.3.6.3 1.2v5.5c0 1.1.2 2 .6 2.7.7 1.2 2 1.9 3.9 1.9s3.3-.6 4-1.9c.4-.7.6-1.6.6-2.9v-4.6c0-.9.1-1.5.3-1.8s.7-.4 1.3-.5v-.3h-4.1v.3c.6.1 1.1.2 1.3.5.2.2.3.9.3 1.8v4.6c0 1.1-.1 2-.4 2.5-.5 1-1.5 1.5-2.9 1.5-1.3 0-2.2-.5-2.7-1.4-.3-.5-.4-1.3-.4-2.2v-5.7c0-.7.1-1.1.3-1.3s.7-.2 1.3-.3v-.3h-5z" fill="#1F4D87"/></svg>

<!DOCTYPE svg PUBLIC "-//W3C//DTD SVG 1.1//EN" "http://www.w3.org/Graphics/SVG/1.1/DTD/svg11.dtd" [
	<!ENTITY ns_flows "http://ns.adobe.com/Flows/1.0/">
]><svg xmlns="http://www.w3.org/2000/svg" width="16" height="16" viewBox="0 -1 16 16" preserveAspectRatio="xMinYMid meet" overflow="visible"><path d="M16 15H0v-1h16v1zM2 0v.3c.7.1 1.1.2 1.3.4.2.2.3.6.3 1.2v5.5c0 1.1.2 2 .6 2.7.7 1.2 2 1.9 3.9 1.9s3.3-.6 4-1.9c.4-.7.6-1.6.6-2.9V2.6c0-.9.1-1.5.3-1.8s.7-.4 1.3-.5V0h-4.1v.3c.6.1 1.1.2 1.3.5.2.2.3.9.3 1.8v4.6c0 1.1-.1 2-.4 2.5-.5 1-1.5 1.5-2.9 1.5-1.3 0-2.2-.5-2.7-1.4-.3-.5-.4-1.3-.4-2.2V1.9c0-.7.1-1.1.3-1.3S6.4.4 7 .3V0H2z" fill="#999"/></svg>
